assets/about-us/Group 79.svg

<svg xmlns="http://www.w3.org/2000/svg" xmlns:xlink="http://www.w3.org/1999/xlink" width="636" height="621" fill="none" xmlns:v="https://vecta.io/nano"><g filter="url(#A)"><path d="M410.002 407L427.001 407C537.458 407 627.002 317.457 627.001 206.999L627 -14.9998" stroke="url(#B)" stroke-width="10"/></g><path d="M205 621c113.218 0 205-91.782 205-205s-91.782-205-205-205S0 302.782 0 416s91.782 205 205 205z" fill="url(#C)"/><g fill-rule="evenodd"><path d="M240.875 445.725h16.4a5.13 5.13 0 0 0 5.125-5.125 5.13 5.13 0 0 0-5.125-5.125h-16.4a5.13 5.13 0 0 0-5.125 5.125 5.13 5.13 0 0 0 5.125 5.125zm0-30.75h57.4a5.13 5.13 0 0 0 5.125-5.125 5.13 5.13 0 0 0-5.125-5.125h-57.4a5.13 5.13 0 0 0-5.125 5.125 5.13 5.13 0 0 0 5.125 5.125z" fill="#fff"/><path d="M5.125 549.25h328a5.13 5.13 0 0 0 5.125-5.125 5.13 5.13 0 0 0-5.125-5.125h-328A5.13 5.13 0 0 0 0 544.125a5.13 5.13 0 0 0 5.125 5.125z" fill="url(#D)"/><path d="M105.904 539H5.125A5.13 5.13 0 0 0 0 544.125a5.13 5.13 0 0 0 5.125 5.125h100.779a5.13 5.13 0 0 0 5.125-5.125 5.13 5.13 0 0 0-5.125-5.125z" fill="#fff"/><path d="M205 491.85h15.375c2.83 0 5.125 2.295 5.125 5.125v20.162c0 6.879 4.569 12.92 11.188 14.794a15.38 15.38 0 0 0 17.281-6.737l19.019-30.904c.933-1.516 2.585-2.44 4.365-2.44h45.522a15.38 15.38 0 0 0 15.375-15.375V368.85a15.38 15.38 0 0 0-15.375-15.375h-82a5.13 5.13 0 0 0-5.125 5.125 5.13 5.13 0 0 0 5.125 5.125h82c2.83 0 5.125 2.295 5.125 5.125v107.625c0 2.83-2.295 5.125-5.125 5.125h-45.522c-5.34 0-10.296 2.77-13.095 7.318l-19.019 30.904c-1.201 1.953-3.553 2.87-5.76 2.246s-3.729-2.638-3.729-4.931v-20.162a15.38 15.38 0 0 0-15.375-15.375H205a5.13 5.13 0 0 0-5.125 5.125A5.13 5.13 0 0 0 205 491.85h0z" fill="url(#E)"/><path d="M78.925 460.762l-1.83-129.62a15.37 15.37 0 0 1 4.425-11.011c2.889-2.931 6.833-4.581 10.948-4.581H225.5c4.077 0 7.989 1.619 10.872 4.503s4.503 6.794 4.503 10.872v129.837l-38.771 6.11-7.536 36.94-9.839 1.025-30.979-41.792-74.825-2.283h0z" fill="url(#F)"/><path d="M246 453.925V325.8c0-4.078-1.62-7.989-4.503-10.872s-6.795-4.503-10.872-4.503h-143.5c-4.078 0-7.989 1.619-10.872 4.503s-4.503 6.794-4.503 10.872v128.125c0 4.077 1.62 7.989 4.503 10.872a15.38 15.38 0 0 0 10.872 4.503h66.022c1.78 0 3.432.923 4.365 2.438 0 .001 19.019 30.906 19.019 30.906 3.605 5.858 10.663 8.609 17.281 6.736S205 501.465 205 494.587v-20.162c0-2.83 2.295-5.125 5.125-5.125h20.5A15.38 15.38 0 0 0 246 453.925h0zm-10.25 0c0 2.83-2.295 5.125-5.125 5.125h-20.5a15.38 15.38 0 0 0-15.375 15.375v20.162c0 2.292-1.523 4.306-3.729 4.931s-4.559-.293-5.76-2.246l-19.019-30.905c-2.799-4.548-7.755-7.317-13.095-7.317H87.125c-1.359 0-2.663-.54-3.624-1.501A5.13 5.13 0 0 1 82 453.925V325.8a5.13 5.13 0 0 1 5.125-5.125h143.5a5.13 5.13 0 0 1 5.125 5.125v128.125h0z" fill="url(#G)"/><path d="M175.985 394.888c-3.195 9.016-13.11 13.741-22.125 10.545s-13.741-13.11-10.546-22.124 13.11-13.742 22.126-10.547a9.57 9.57 0 0 0 12.212-5.82 9.57 9.57 0 0 0-5.82-12.21c-18.968-6.724-39.825 3.217-46.548 22.185s3.217 39.825 22.185 46.548 39.825-3.217 46.548-22.185c1.764-4.976-.844-10.448-5.82-12.212s-10.448.845-12.212 5.82h0z" fill="url(#H)"/></g><defs><filter id="A" x="406.002" y="-15" width="229.999" height="435" filterUnits="userSpaceOnUse" color-interpolation-filters="sRGB"><feFlood flood-opacity="0" result="A"/><feColorMatrix in="SourceAlpha" values="0 0 0 0 0 0 0 0 0 0 0 0 0 0 0 0 0 0 127 0" result="B"/><feOffset dy="4"/><feGaussianBlur stdDeviation="2"/><feComposite in2="B" operator="out"/><feColorMatrix values="0 0 0 0 0 0 0 0 0 0 0 0 0 0 0 0 0 0 0.25 0"/><feBlend in2="A"/><feBlend in="SourceGraphic"/></filter><linearGradient id="B" x1="-100.022" y1="1420.81" x2="478.422" y2="-311.193" xlink:href="#I"><stop stop-color="#fa8080"/><stop offset=".495" stop-color="#bf74bb"/><stop offset=".847" stop-color="#1f1f1f"/><stop offset="1" stop-color="#5a43de"/></linearGradient><linearGradient id="C" x1="72.059" y1="259.996" x2="359.076" y2="551.168" xlink:href="#I"><stop stop-color="#ff0cf5"/><stop offset="1" stop-color="#0575e6"/></linearGradient><linearGradient id="D" x1="0" y1="544.125" x2="320.825" y2="544.125" xlink:href="#I"><stop stop-color="#3aa0fe"/><stop offset="1" stop-color="#59fef4"/></linearGradient><linearGradient id="E" x1="148.625" y1="435.475" x2="333.125" y2="435.475" xlink:href="#I"><stop stop-color="#3aa0fe"/><stop offset="1" stop-color="#59fef4"/></linearGradient><linearGradient id="F" x1="-184.506" y1="338.669" x2="-184.506" y2="499.127" xlink:href="#I"><stop stop-color="#36ff78" stop-opacity=".8"/><stop offset="1" stop-color="#0cffff" stop-opacity=".15"/></linearGradient><linearGradient id="G" x1="92.25" y1="315.55" x2="235.75" y2="487.75" xlink:href="#I"><stop stop-color="#36ff78"/><stop offset="1" stop-color="#0cffff"/></linearGradient><linearGradient id="H" x1="148.576" y1="364.593" x2="179.308" y2="407.462" xlink:href="#I"><stop stop-color="#ff0cf5"/><stop offset="1" stop-color="#0575e6"/></linearGradient><linearGradient id="I" gradientUnits="userSpaceOnUse"/></defs></svg>

<svg width="636" height="621" viewBox="0 0 636 621" fill="none" xmlns="http://www.w3.org/2000/svg">
<g filter="url(#filter0_d_54_12)">
<path d="M410.002 407L427.001 407C537.458 407 627.002 317.457 627.001 206.999L627 -14.9998" stroke="url(#paint0_linear_54_12)" stroke-width="10"/>
</g>
<path d="M205 621C318.218 621 410 529.218 410 416C410 302.782 318.218 211 205 211C91.7816 211 0 302.782 0 416C0 529.218 91.7816 621 205 621Z" fill="url(#paint1_linear_54_12)"/>
<path fill-rule="evenodd" clip-rule="evenodd" d="M240.875 445.725H257.275C260.104 445.725 262.4 443.429 262.4 440.6C262.4 437.771 260.104 435.475 257.275 435.475H240.875C238.046 435.475 235.75 437.771 235.75 440.6C235.75 443.429 238.046 445.725 240.875 445.725Z" fill="white"/>
<path fill-rule="evenodd" clip-rule="evenodd" d="M240.875 414.975H298.275C301.104 414.975 303.4 412.679 303.4 409.85C303.4 407.021 301.104 404.725 298.275 404.725H240.875C238.046 404.725 235.75 407.021 235.75 409.85C235.75 412.679 238.046 414.975 240.875 414.975Z" fill="white"/>
<path fill-rule="evenodd" clip-rule="evenodd" d="M5.125 549.25H333.125C335.954 549.25 338.25 546.954 338.25 544.125C338.25 541.296 335.954 539 333.125 539H5.125C2.296 539 0 541.296 0 544.125C0 546.954 2.296 549.25 5.125 549.25Z" fill="url(#paint2_linear_54_12)"/>
<path fill-rule="evenodd" clip-rule="evenodd" d="M105.904 539H5.125C2.296 539 0 541.296 0 544.125C0 546.954 2.296 549.25 5.125 549.25H105.904C108.732 549.25 111.029 546.954 111.029 544.125C111.029 541.296 108.732 539 105.904 539Z" fill="white"/>
<path fill-rule="evenodd" clip-rule="evenodd" d="M205 491.85H220.375C223.205 491.85 225.5 494.145 225.5 496.975C225.5 502.516 225.5 509.73 225.5 517.137C225.5 524.016 230.069 530.057 236.688 531.931C243.306 533.803 250.364 531.052 253.969 525.194L272.988 494.29C273.921 492.774 275.573 491.85 277.353 491.85H322.875C331.366 491.85 338.25 484.966 338.25 476.475C338.25 452.475 338.25 392.85 338.25 368.85C338.25 360.359 331.366 353.475 322.875 353.475C298.841 353.475 240.875 353.475 240.875 353.475C238.046 353.475 235.75 355.771 235.75 358.6C235.75 361.429 238.046 363.725 240.875 363.725H322.875C325.705 363.725 328 366.02 328 368.85V476.475C328 479.305 325.705 481.6 322.875 481.6C309.83 481.6 287.743 481.6 277.353 481.6C272.013 481.6 267.057 484.37 264.258 488.918L245.239 519.822C244.038 521.775 241.686 522.692 239.479 522.068C237.273 521.443 235.75 519.43 235.75 517.137V496.975C235.75 488.484 228.866 481.6 220.375 481.6C213.24 481.6 205 481.6 205 481.6C202.171 481.6 199.875 483.896 199.875 486.725C199.875 489.554 202.171 491.85 205 491.85V491.85Z" fill="url(#paint3_linear_54_12)"/>
<path fill-rule="evenodd" clip-rule="evenodd" d="M78.9249 460.762C78.9249 460.762 77.6242 368.636 77.0953 331.142C77.0369 327.027 78.6308 323.06 81.5202 320.131C84.4097 317.2 88.3529 315.55 92.4683 315.55C123.852 315.55 194.299 315.55 225.5 315.55C229.577 315.55 233.489 317.169 236.372 320.053C239.255 322.936 240.875 326.847 240.875 330.925C240.875 368.279 240.875 460.762 240.875 460.762L202.104 466.872L194.568 503.812L184.729 504.837L153.75 463.045L78.9249 460.762V460.762Z" fill="url(#paint4_linear_54_12)"/>
<path fill-rule="evenodd" clip-rule="evenodd" d="M246 453.925V325.8C246 321.722 244.38 317.811 241.497 314.928C238.614 312.044 234.702 310.425 230.625 310.425H87.125C83.0475 310.425 79.1361 312.044 76.2528 314.928C73.3695 317.811 71.75 321.722 71.75 325.8V453.925C71.75 458.002 73.3695 461.914 76.2528 464.797C79.1361 467.68 83.0475 469.3 87.125 469.3C104.56 469.3 139.434 469.3 153.147 469.3C154.927 469.3 156.579 470.223 157.512 471.738C157.512 471.739 176.531 502.644 176.531 502.644C180.136 508.502 187.194 511.253 193.812 509.38C200.431 507.507 205 501.465 205 494.587V474.425C205 471.595 207.295 469.3 210.125 469.3H230.625C239.116 469.3 246 462.416 246 453.925V453.925ZM235.75 453.925C235.75 456.755 233.455 459.05 230.625 459.05H210.125C201.634 459.05 194.75 465.934 194.75 474.425V494.587C194.75 496.879 193.227 498.893 191.021 499.518C188.814 500.142 186.462 499.225 185.261 497.272L166.242 466.367C163.443 461.819 158.487 459.05 153.147 459.05C139.434 459.05 104.56 459.05 87.125 459.05C85.7658 459.05 84.462 458.51 83.5006 457.549C82.5402 456.588 82 455.284 82 453.925V325.8C82 324.441 82.5402 323.137 83.5006 322.175C84.462 321.215 85.7658 320.675 87.125 320.675H230.625C231.984 320.675 233.288 321.215 234.249 322.175C235.21 323.137 235.75 324.441 235.75 325.8V453.925V453.925Z" fill="url(#paint5_linear_54_12)"/>
<path fill-rule="evenodd" clip-rule="evenodd" d="M175.985 394.888C172.79 403.904 162.875 408.629 153.86 405.433C144.845 402.238 140.119 392.323 143.314 383.309C146.51 374.293 156.424 369.567 165.44 372.762C170.416 374.526 175.888 371.919 177.652 366.942C179.416 361.967 176.807 356.495 171.832 354.732C152.864 348.008 132.007 357.949 125.284 376.917C118.56 395.884 128.501 416.742 147.469 423.465C166.436 430.188 187.294 420.248 194.017 401.28C195.781 396.304 193.173 390.832 188.197 389.068C183.221 387.305 177.749 389.913 175.985 394.888V394.888Z" fill="url(#paint6_linear_54_12)"/>
<defs>
<filter id="filter0_d_54_12" x="406.002" y="-15" width="229.999" height="435" filterUnits="userSpaceOnUse" color-interpolation-filters="sRGB">
<feFlood flood-opacity="0" result="BackgroundImageFix"/>
<feColorMatrix in="SourceAlpha" type="matrix" values="0 0 0 0 0 0 0 0 0 0 0 0 0 0 0 0 0 0 127 0" result="hardAlpha"/>
<feOffset dy="4"/>
<feGaussianBlur stdDeviation="2"/>
<feComposite in2="hardAlpha" operator="out"/>
<feColorMatrix type="matrix" values="0 0 0 0 0 0 0 0 0 0 0 0 0 0 0 0 0 0 0.25 0"/>
<feBlend mode="normal" in2="BackgroundImageFix" result="effect1_dropShadow_54_12"/>
<feBlend mode="normal" in="SourceGraphic" in2="effect1_dropShadow_54_12" result="shape"/>
</filter>
<linearGradient id="paint0_linear_54_12" x1="-100.022" y1="1420.81" x2="478.422" y2="-311.193" gradientUnits="userSpaceOnUse">
<stop stop-color="#FA8080"/>
<stop offset="0.494792" stop-color="#BF74BB"/>
<stop offset="0.846516" stop-color="#1F1F1F"/>
<stop offset="1" stop-color="#5A43DE"/>
</linearGradient>
<linearGradient id="paint1_linear_54_12" x1="72.0588" y1="259.996" x2="359.076" y2="551.168" gradientUnits="userSpaceOnUse">
<stop stop-color="#FF0CF5"/>
<stop offset="1" stop-color="#0575E6"/>
</linearGradient>
<linearGradient id="paint2_linear_54_12" x1="0" y1="544.125" x2="320.825" y2="544.125" gradientUnits="userSpaceOnUse">
<stop stop-color="#3AA0FE"/>
<stop offset="1" stop-color="#59FEF4"/>
</linearGradient>
<linearGradient id="paint3_linear_54_12" x1="148.625" y1="435.475" x2="333.125" y2="435.475" gradientUnits="userSpaceOnUse">
<stop stop-color="#3AA0FE"/>
<stop offset="1" stop-color="#59FEF4"/>
</linearGradient>
<linearGradient id="paint4_linear_54_12" x1="-184.506" y1="338.669" x2="-184.506" y2="499.127" gradientUnits="userSpaceOnUse">
<stop stop-color="#36FF78" stop-opacity="0.8"/>
<stop offset="1" stop-color="#0CFFFF" stop-opacity="0.15"/>
</linearGradient>
<linearGradient id="paint5_linear_54_12" x1="92.25" y1="315.55" x2="235.75" y2="487.75" gradientUnits="userSpaceOnUse">
<stop stop-color="#36FF78"/>
<stop offset="1" stop-color="#0CFFFF"/>
</linearGradient>
<linearGradient id="paint6_linear_54_12" x1="148.576" y1="364.593" x2="179.308" y2="407.462" gradientUnits="userSpaceOnUse">
<stop stop-color="#FF0CF5"/>
<stop offset="1" stop-color="#0575E6"/>
</linearGradient>
</defs>
</svg>
